X:1
T:Benedicite Deum Coeli
T:Benedicite Deum Coeli
T:Horatio Tarditi
C:Horatio Tarditi
%%score [ 1 2 ] { ( 3 4 ) 5 }
L:1/8
Q:1/4=120
M:2/2
K:C
V:1 alto1 nm="Soprano"
V:2 alto nm="Alto"
V:3 treble nm="MusicXML Part"
V:4 treble 
V:5 bass nm="MusicXML Part"
V:1
 z2 d3/2 x8 | z2 d>d d4- | d2 A>B G3 ^F | A4 A4 | z AAB c>cB>A | B3 B B2 Bc | d>dd>d d4- | %7
w: |Be- ne- di-|* ci- te De- um|coe- li|et co- ram om- ni- bus vi-|ven- ti- bus e- nar-|ra- te mi- ra- bi-|
 d2 A>A A4 | G8 | z8 | z GGA B>BA>G | A3 A B4 | z8 | z8 | z8 | z2 c>c c4- | c2 B>A d4- | d4 ^c4 | %18
w: * li- a [e-|ius]||et co- ram om- ni- bus vi-|ven- ti- bus||||Be- ne- di-|* ci- te De-|* um|
 d4 d4 | z ccc B>AB>G | A3 A A2 AA | BGAB c4- | c2 B>A A4 | G8 || G>AB>c A3 A | %25
w: coe- li|et co- ram om- ni- bus vi-|ven- ti- bus e- nar-|ra- te mi- ra- bi-|* li- a e-|ius.|I- psum be- ne- di- ci-|
 G2 G>A Bc/d/ GA/B/ | cB AG A4 | B4"^-natural" z4 | A>Bc>c c3 B | c2 cB AB/c/ AB/c/ | dc BA B4 | %31
w: te et can- ta- * * * * *|* * te * e-|i,|ip- sum be- ne- di- ci-|te et can- ta- * * * * *|* * te _ e-|
 A4"^-natural" z2 d>c | Bc/d/ GA/B/ cB BA/G/ | AB cB A4 | B4 e2 d2 | c4 c3 B | B4 B2 G2 | %37
w: i, et can-|ta- * * * * * * * * * *|* * te * e-|i, qui- a|fe- cit no-|bis- cum mi-|
 A2 B2 c3 c | B2 d4 ^c2 | d2 A2 B2 ^c2 | d3 e/d/ c3 c | B<A B<G A4 | B2 c2 c3 B | c4 z AB>^c | %44
w: se- ri- cor- di-|am su- *|am, mi- se- ri-|cor- * * * di|am _ _ _ su-|am. Al- le- lu-|ia, al- le- lu-|
 d4 z BAB | cd/c/ BA/B/ G3 A | A8 | G8 |] %48
w: ia, al- le- lu-|ia, _ _ _ _ _ al- le-|lu-|ia.|
V:2
"^7" z8 z2 G3/2 | z8 | z8 | z8 | z8 | z8 | z8 | z8 | z2 G>G G4- | G2 D>E C3 B, | D4 D4 | %11
w: ||||||||Be- ne- di-|* ci- te De- um|coe- li|
 z DD>E F>FE>D | E3 E E2 EF | G>GG>G G4- | G2 D>D D4 | C4 z2 F>F | F6 G>A | E6 E2 | D4 DFFF | %19
w: et co- ram om- ni- bus vi-|ven- ti- bus e- nar-|ra- te mi- ra- bi-|* li- a e-|ius, be- ne-|di- ci- te|De- um|coe- li et co- ram|
 E>DE>C D3 D | D2 D>E ^FDEF | G3 F E4 | ^F2 G4 F2 | G8 || z8 | z8 | E>FG>G G3 ^F | %27
w: om- ni- bus vi- ven- ti-|bus e- nar- ra- te mi- ra-|bi- li- a|e- * *|ius.|||Ip- sum be- ne- di- ci-|
 G2 G>F EF/G/ CD/E/ | FE DC D4 | C4 z4 | F>GA>A A3 ^G | A2 A>G ^FG/A/ DE/F/ | GF G/F/E/D/ EF GA | %33
w: te et can- ta- * * * * *|* * te _ e-|i,|ip- sum be- ne- di- ci-|te et can- ta- * * * * *|* * * * * * * * te *|
 ^F2 G4 F2 | G4 G2 F2 | E4 E3 D | D4 D4 | z2 D2 F2 ^F2 | G3 G E4 | z4 z2 E2 | ^F2 ^G2 A3 A | %41
w: e- * *|i, qui- a|fe- cit no-|bis- cum|mi- se- ri-|cor- di- am|mi-|se- ri- cor- di-|
 G2 G4 ^F2 | G2 E2 D3 D | CEFG A4 | z ^FEF GA/G/ FG/F/ | E<D E<"^#"F G4- | G2 ^FE F4 | G8 |] %48
w: am su- *|am. Al- le- lu-|ia, al- le- lu- ia,|al- le- lu- ia, _ _ _ _ _|al- * * * *|* le- * lu-|ia.|
V:3
 z7/2 x8 | [GBd]8 | [Ad]4 [Gd]2 [Ec]2 | [D^FA]4 [DFA]4 | [FA]2 [FB]2 cd e2 | e4 ed c2 | %6
 d2 d2 B2 F2 | A2 A2 A4 | G4 B2 c2 | d4 c2 c2 | B4 G4 | F4 G2 AB | c4 c4 | Bc d2 c2 c2 | B2 A2 B4 | %15
 c4 A4 | A4 A2 B>c | d4 e4 | d4 d4 | c4 d4 | A4 A4 | B4 c4 | c2 B2 A4 | [B,DG]8 || [DGB]4 [DA]4 | %25
 [B,DG]4 [B,DG]4 | [EG]2 [Gc]2 [DA]4 | [DGB]4 [EGc]4 | [Ac]2 [EA]2 c3 B | [EGc]4 A3 B/c/ | %30
 d2 d2 B4 | A4 A4 | B4 c2 G2 | ABcd [Ad]4 | d4 [EGc]2 [=FA]2 | [Gc]4 [DA]4 | [DGB]4 [GBd]4 | %37
 [Ac]2 [GB]2 [EA]2 [EA]2 | [DGB]4 [Ed]2 [EA^c]2 | [FAd]4 [Bd]2 [A^c]2 | [^FAd]2 [Ec]2 [EAc]4 | %41
 [Gd]2 [GB]2 [DA]4 | [B,DG]2 [CEG]2 [CFA]2 [B,DG]2 | [CEG]4 [FA]2 B^c | d4 d4 | [Gc]2 d2 [Gc]4 | %46
 [Ad]8 | [GBd]8 |] %48
V:4
 x23/2 | x8 | x8 | x8 | x4 E2 [Ac]2 | [GB]4 G2 G2 | G2 F2 G2 D2 | F2 E2 [D^F]4 | [B,D]4 G2 E2 | %9
 G4 G2 F2 | [DG]4 [B,D]4 | D4 D2 F2 | [EG]4 [EG]4 | D2 G2 G2 G2 | D2 F2 D4 | E4 [CF]4 | F4 [DF]4 | %17
 A4 A4 | [=FA]4 A4 | [EA]4 G4 | ^F4 D4 | D4 G4 | A2 G2 D4 | x8 || x8 | x8 | x4 G3 ^F | x8 | %28
 x4 [DG]4 | x4 [CF]4 | [DA]4 E4 | [CE]4 [D^F]4 | D4 E2 C2 | D2 E2 G2 ^F2 | [GB]4 x4 | x8 | x8 | %37
 x8 | x8 | x8 | x8 | x4 G2 ^F2 | x8 | x6 [EA]2 | [^FA]4 [GB]4 | x2 BA z4 | G2 ^FE F4 | x8 |] %48
V:5
 G,8 x7/2 | G,8 | ^F,4 E,4 | D,4 D,4 | D,4 A,,4 | E,4 E,4 | B,,2 A,,2 G,,2 F,,E,, | %7
w: |||||||
 D,,2 C,,2 D,,4 | G,,4 G,,2 A,,2 | B,,4 A,,4 | G,,4 G,,4 | D,2 D,2 D,4 | C,4 C,4 | %13
w: ||||||
 G,2 F,2 E,2 D,C, | G,2 F,2 G,4 | C,4 F,4 | F,4 D,4 | A,,8 | D,4 D,4 | A,,4 G,,4 | D,4 D,4 | %21
w: |* 6 *||||||* +|
 G,,4 C,4 | D,8 | G,,8 || G,4 ^F,4 | G,4 G,,4 | C,2 E,2 D,4 | G,,4 C,4 | F,2 A,2 G,4 | C,4 F,3 E, | %30
w: |||||||||
 D,2 F,2 E,4 | A,4 D,4 | G,,4 C,2 E,2 | D,2 C,2 D,4 | G,,4 C,2 D,2 | E,4 ^F,4 | G,4 G,4 | %37
w: |||||||
 F,2 D,2 C,2 A,,2 | G,,4 A,,4 | D,4 G,2 E,2 | D,2 C,2 A,,4 | B,,2 E,2 D,4 | G,2 C,2 F,2 G,2 | %43
w: * 6 * 6||* * 6+|+ * *|||
 C,4 F,2 E,2 | D,4 G,,4 | C,2 D,2 E,4 | D,8 | G,,8 |] %48
w: |||||

